svg/white/kcs.svg

<svg xmlns="http://www.w3.org/2000/svg" width="32" height="32" viewBox="0 0 32 32">
  <path fill="#FFF" fill-rule="evenodd" d="M16,32 C7.163444,32 0,24.836556 0,16 C0,7.163444 7.163444,0 16,0 C24.836556,0 32,7.163444 32,16 C32,24.836556 24.836556,32 16,32 Z M13.5409024,16.0000054 L13.5408991,16.0000764 L18.7139251,10.6693043 L21.978881,14.0331562 C22.5554718,14.627441 23.4908847,14.6272309 24.0674764,14.0331562 C24.6441193,13.4390825 24.6442208,12.475459 24.0674764,11.8813843 L19.7582376,7.44148409 C19.1841895,6.85013877 18.2384356,6.85554471 17.6697901,7.44148409 L11.4536145,13.8469846 L11.4536145,10.0390016 C11.4536145,9.19909306 10.792208,8.51742077 9.9766052,8.51742077 C9.16115217,8.51742077 8.5,9.1988778 8.5,10.0390016 L8.5,21.9612935 C8.5,22.8014649 9.16115512,23.4828742 9.9766052,23.4828742 C10.7881832,23.4828742 11.4536145,22.7971079 11.4536145,21.961131 L11.4537163,18.153148 L17.6697934,24.5584962 C18.2384409,25.1444883 19.1841958,25.1498415 19.7582409,24.5584962 L24.0674797,20.1185959 C24.6442242,19.5245222 24.6441227,18.5609516 24.0674797,17.9668241 C23.490889,17.3726966 22.5554761,17.3725392 21.9788844,17.9668241 L18.7139285,21.3307267 L13.5409024,16.0000054 Z M18.7161656,14.4768406 C17.8998443,14.4768406 17.2378259,15.1589322 17.2378259,15.9998429 C17.2378259,16.8409668 17.8998492,17.5230584 18.7161656,17.5230584 C19.5323784,17.5230584 20.1943969,16.8409638 20.1943969,15.9998429 C20.1943969,15.1589322 19.5323804,14.4768406 18.7161656,14.4768406 Z"/>
</svg>

<svg xmlns="http://www.w3.org/2000/svg" width="32" height="32"><path fill="#FFF" fill-rule="evenodd" d="M16 32C7.163 32 0 24.837 0 16S7.163 0 16 0s16 7.163 16 16-7.163 16-16 16zm-2.46-16l5.174-5.33 3.265 3.363a1.446 1.446 0 0 0 2.088 0 1.554 1.554 0 0 0 0-2.152l-4.309-4.44a1.456 1.456 0 0 0-2.088 0l-6.216 6.406v-3.808c0-.84-.662-1.522-1.477-1.522-.816 0-1.477.682-1.477 1.522v11.922c0 .84.661 1.522 1.477 1.522.811 0 1.477-.686 1.477-1.522v-3.808l6.216 6.405a1.456 1.456 0 0 0 2.088 0l4.31-4.44a1.554 1.554 0 0 0 0-2.151 1.446 1.446 0 0 0-2.09 0l-3.264 3.364L13.54 16zm5.176-1.523c-.816 0-1.478.682-1.478 1.523 0 .841.662 1.523 1.478 1.523s1.478-.682 1.478-1.523c0-.841-.662-1.523-1.478-1.523z"/></svg>
